icons/location-24.svg

<svg xmlns="http://www.w3.org/2000/svg" width="24" height="24" viewBox="0 0 24 24"><path d="M12 13.5a2.5 2.5 0 100-5 2.5 2.5 0 000 5z"/><path d="M19.071 3.429h.001c3.905 3.905 3.905 10.237 0 14.142l-5.403 5.403a2.36 2.36 0 01-3.336 0l-5.375-5.375-.028-.028c-3.905-3.905-3.905-10.237 0-14.142 3.904-3.905 10.236-3.905 14.141 0zM5.99 4.489v.001a8.5 8.5 0 000 12.02l.023.024.002.002 5.378 5.378a.859.859 0 001.214 0l5.403-5.404a8.5 8.5 0 00-.043-11.977A8.5 8.5 0 005.99 4.489z"/></svg>

<svg xmlns="http://www.w3.org/2000/svg" width="24" height="24" viewBox="0 0 24 24">
  <defs/>
  <path d="M12,13.5 A2.5 2.5 0 1 0 12,8.5 A2.5 2.5 0 0 0 12,13.5 Z"/>
  <path d="M19.071,3.429 L19.072,3.429 C22.977,7.334 22.977,13.666 19.072,17.571 L13.669,22.974 C12.748,23.895 11.254,23.895 10.333,22.974 L4.958,17.599 L4.93,17.571 C1.025,13.666 1.025,7.334 4.93,3.429 C8.834,-0.476 15.166,-0.476 19.071,3.429 Z M5.99,4.489 L5.99,4.49 C2.671,7.809 2.671,13.191 5.99,16.51 L6.013,16.534 L6.015,16.536 L11.393,21.914 C11.728,22.249 12.272,22.249 12.607,21.914 L18.01,16.51 C21.289,13.184 21.269,7.835 17.967,4.533 C14.665,1.23 9.316,1.211 5.99,4.489 Z"/>
</svg>
